X: 1732
T: the Widow Cantwell's Fancy   #2
R: hornpipe, reel
%S: s:3 b:12(4+4+4)
O: Mrs. Cantwell
B: O'Neill's 1850 #1732
R: Hornpipe
Z: Transcribed by Bob Safranek, rjs@gsp.org
Z: Transcribed by A. Lee Worman
N: Compacted by using labels and play order [JC]
P: Play ABAB CBCB
M: 2/4
L: 1/16
N: Compacted by using labels and play order [JC]
P: ABAB CBCB
K: G
"^A"[| (ge) | dBGG GBdB | (3ABG (3FGE DcBA | GFGG GBdB | BAAA A2 |]
"^B"[| (ge) | dBGG GBdB | (3ABG (3FGE DcBA | GBdg ecAF | G2G2 G2 |]
"^C"[| (Bc) | dg~g2 dg~g2 | dg~g2 edcB | Aa{b}ag fedc | Bdef gf |]
